images/reference/linkedin.svg

<svg height="512" viewBox="0 0 512 512" width="512" xmlns="http://www.w3.org/2000/svg"><g transform="matrix(1.3333333 0 0 -1.3333333 0 512)"><path d="m133.344 144h-122.7151c-5.86406 0-10.6289-4.648-10.6289-10.377v-123.2339c0-5.73402 4.76484-10.3891 10.6289-10.3891h122.7151c5.875 0 10.66 4.65508 10.66 10.3891v123.2339c0 5.729-4.785 10.377-10.66 10.377" fill="#0977b6" transform="scale(2.6665927)"/><g fill="#fff"><path d="m85.422697 331.12148c18.206693 0 33.006283-14.79692 33.006283-33.00975 0-18.23149-14.79959-33.02948-33.006283-33.02948-18.254693 0-33.028417 14.79799-33.028417 33.02948 0 18.21283 14.773724 33.00975 33.028417 33.00975m-28.492009-91.08947h56.956822v-183.252252h-56.956822z"/><path d="m149.61265 240.03201h54.62328v-25.04117h.76372c7.60272 14.40893 26.18247 29.59704 53.88997 29.59704 57.67493 0 68.32264-37.95494 68.32264-87.28904v-100.519082h-56.91576v89.118332c0 21.24927-.39199 48.58292-29.59598 48.58292-29.63251 0-34.18225-23.1463-34.18225-47.04643v-90.654822h-56.90562z"/></g></g></svg>

<?xml version="1.0" encoding="UTF-8" standalone="no"?>
<!-- Created with Inkscape (http://www.inkscape.org/) -->

<svg
   xmlns:dc="http://purl.org/dc/elements/1.1/"
   xmlns:cc="http://creativecommons.org/ns#"
   xmlns:rdf="http://www.w3.org/1999/02/22-rdf-syntax-ns#"
   xmlns:svg="http://www.w3.org/2000/svg"
   xmlns="http://www.w3.org/2000/svg"
   xmlns:sodipodi="http://sodipodi.sourceforge.net/DTD/sodipodi-0.dtd"
   xmlns:inkscape="http://www.inkscape.org/namespaces/inkscape"
   version="1.1"
   id="svg2"
   xml:space="preserve"
   width="512"
   height="512"
   viewBox="0 0 512 512"
   sodipodi:docname="linkedin.svg"
   inkscape:version="0.92.1 r15371"><metadata
     id="metadata8"><rdf:RDF><cc:Work
         rdf:about=""><dc:format>image/svg+xml</dc:format><dc:type
           rdf:resource="http://purl.org/dc/dcmitype/StillImage" /><dc:title></dc:title></cc:Work></rdf:RDF></metadata><defs
     id="defs6" /><sodipodi:namedview
     pagecolor="#ffffff"
     bordercolor="#666666"
     borderopacity="1"
     objecttolerance="10"
     gridtolerance="10"
     guidetolerance="10"
     inkscape:pageopacity="0"
     inkscape:pageshadow="2"
     inkscape:window-width="1366"
     inkscape:window-height="739"
     id="namedview4"
     showgrid="false"
     inkscape:zoom="1.2291667"
     inkscape:cx="103.64"
     inkscape:cy="323.79661"
     inkscape:window-x="0"
     inkscape:window-y="0"
     inkscape:window-maximized="1"
     inkscape:current-layer="g10" /><g
     id="g10"
     inkscape:groupmode="layer"
     inkscape:label="ink_ext_XXXXXX"
     transform="matrix(1.3333333,0,0,-1.3333333,0,512)"><g
       id="g30"
       transform="scale(2.6665927)"><path
         d="M 133.344,144 H 10.6289 C 4.76484,144 0,139.352 0,133.623 V 10.3891 C 0,4.65508 4.76484,0 10.6289,0 H 133.344 c 5.875,0 10.66,4.65508 10.66,10.3891 V 133.623 c 0,5.729 -4.785,10.377 -10.66,10.377"
         style="fill:#0977b6;fill-opacity:1;fill-rule:nonzero;stroke:none;stroke-width:0.1"
         id="path14"
         inkscape:connector-curvature="0" /></g><path
       inkscape:connector-curvature="0"
       id="path16"
       style="fill:#ffffff;fill-opacity:1;fill-rule:nonzero;stroke:none;stroke-width:0.26665926"
       d="m 85.422697,331.12148 c 18.206693,0 33.006283,-14.79692 33.006283,-33.00975 0,-18.23149 -14.79959,-33.02948 -33.006283,-33.02948 -18.254693,0 -33.028417,14.79799 -33.028417,33.02948 0,18.21283 14.773724,33.00975 33.028417,33.00975 M 56.930688,240.03201 H 113.88751 V 56.779758 H 56.930688 V 240.03201" /><path
       inkscape:connector-curvature="0"
       id="path18"
       style="fill:#ffffff;fill-opacity:1;fill-rule:nonzero;stroke:none;stroke-width:0.26665926"
       d="m 149.61265,240.03201 h 54.62328 v -25.04117 h 0.76372 c 7.60272,14.40893 26.18247,29.59704 53.88997,29.59704 57.67493,0 68.32264,-37.95494 68.32264,-87.28904 V 56.779758 H 270.2965 v 89.118332 c 0,21.24927 -0.39199,48.58292 -29.59598,48.58292 -29.63251,0 -34.18225,-23.1463 -34.18225,-47.04643 V 56.779758 H 149.61265 V 240.03201" /></g></svg>
